Papirus/64x64/apps/com.github.elfenware.obliviate.svg

<?xml version="1.0" encoding="UTF-8" standalone="no"?>
<svg
   id="_图层_1"
   version="1.1"
   viewBox="0 0 64 64" width="64" height="64"
   sodipodi:docname="com.github.elfenware.obliviate.svg"
   xml:space="preserve"
   inkscape:version="1.4 (e7c3feb100, 2024-10-09)"
   xmlns:inkscape="http://www.inkscape.org/namespaces/inkscape"
   xmlns:sodipodi="http://sodipodi.sourceforge.net/DTD/sodipodi-0.dtd"
   xmlns="http://www.w3.org/2000/svg"
   xmlns:svg="http://www.w3.org/2000/svg"><sodipodi:namedview
     id="namedview26"
     pagecolor="#505050"
     bordercolor="#eeeeee"
     borderopacity="1"
     inkscape:showpageshadow="0"
     inkscape:pageopacity="0"
     inkscape:pagecheckerboard="0"
     inkscape:deskcolor="#505050"
     inkscape:zoom="10.6875"
     inkscape:cx="32"
     inkscape:cy="33.497076"
     inkscape:window-width="1920"
     inkscape:window-height="939"
     inkscape:window-x="0"
     inkscape:window-y="34"
     inkscape:window-maximized="1"
     inkscape:current-layer="_图层_1"
     showguides="true" /><!-- Generator: Adobe Illustrator 29.0.1, SVG Export Plug-In . SVG Version: 2.1.0 Build 192)  --><defs
     id="defs6"><style
       id="style1">
      .st0 {
        fill-opacity: .5;
      }

      .st0, .st1, .st2, .st3, .st4, .st5, .st6, .st7 {
        fill: #fff;
      }

      .st8 {
        fill: #133c9a;
      }

      .st2, .st9 {
        display: none;
      }

      .st3 {
        fill-opacity: .2;
      }

      .st4 {
        fill-opacity: .9;
      }

      .st10 {
        fill: #3370ff;
      }

      .st11 {
        fill: url(#_未命名的渐变_3);
      }

      .st12 {
        fill: url(#_未命名的渐变);
      }

      .st5 {
        fill-opacity: .3;
      }

      .st6 {
        fill-opacity: 0;
      }

      .st7 {
        fill-opacity: .7;
      }

      .st13 {
        fill: #00d6b9;
      }

      .st14 {
        fill: url(#_未命名的渐变_2);
      }
    </style><radialGradient
       id="_未命名的渐变"
       data-name="未命名的渐变"
       cx="123.9"
       cy="-40.2"
       fx="123.9"
       fy="-40.2"
       r="59.4"
       gradientTransform="translate(-26.8 25.5) scale(.6 -.7)"
       gradientUnits="userSpaceOnUse"><stop
         offset="0"
         stop-color="#db202e"
         id="stop1" /><stop
         offset="1"
         stop-color="#e01b24"
         id="stop2" /></radialGradient><radialGradient
       id="_未命名的渐变_2"
       data-name="未命名的渐变 2"
       cx="67.6"
       cy="26.8"
       fx="67.6"
       fy="26.8"
       r="105.2"
       gradientTransform="translate(-26.6 25.3) scale(.6 -.7)"
       gradientUnits="userSpaceOnUse"><stop
         offset="0"
         stop-color="#ffb648"
         id="stop3" /><stop
         offset="1"
         stop-color="#ff7800"
         stop-opacity="0"
         id="stop4" /></radialGradient><radialGradient
       id="_未命名的渐变_3"
       data-name="未命名的渐变 3"
       cx="61.7"
       cy="18.6"
       fx="61.7"
       fy="18.6"
       r="68"
       gradientTransform="translate(-26.8 25.8) scale(.6 -.7)"
       gradientUnits="userSpaceOnUse"><stop
         offset="0"
         stop-color="#c64600"
         id="stop5" /><stop
         offset="1"
         stop-color="#a51d2d"
         id="stop6" /></radialGradient></defs><path
     class="st1"
     d="M47.5,64.1H13.8c-7.6,0-13.8-6.3-13.8-13.8V13.7C0,6.2,6.2,0,13.7,0h36.6c7.5,0,13.7,6.2,13.7,13.7v36.6c0,7.5-6.2,13.7-13.7,13.7h-2.9.1Z"
     id="path6"
     style="fill:#b3b3b3;fill-opacity:1" /><g
     id="g37"
     transform="matrix(0.8780284,0,0,0.83912999,3.8563074,5.1668722)"><circle
       style="opacity:0.2"
       cx="32"
       cy="33"
       r="28"
       id="circle1" /><circle
       style="fill:#e4e4e4"
       cx="32"
       cy="32"
       r="28"
       id="circle2" /><path
       style="opacity:0.2;fill:#ffffff"
       d="M 32,4 A 28,28 0 0 0 4,32 28,28 0 0 0 4.0215,32.586 28,28 0 0 1 32,5 28,28 0 0 1 59.979,32.414 28,28 0 0 0 60,32 28,28 0 0 0 32,4 Z"
       id="path2-0" /><path
       style="opacity:0.2"
       d="m 15,27 a 6,6 0 0 0 -6,6 6,6 0 0 0 6,6 6,6 0 0 0 6,-6 6,6 0 0 0 -6,-6 z m 17,0 a 6,6 0 0 0 -6,6 6,6 0 0 0 6,6 6,6 0 0 0 6,-6 6,6 0 0 0 -6,-6 z m 17,0 a 6,6 0 0 0 -6,6 6,6 0 0 0 6,6 6,6 0 0 0 6,-6 6,6 0 0 0 -6,-6 z"
       id="path3-3" /><circle
       style="fill:#3f3f3f"
       cx="15"
       cy="32"
       r="6"
       id="circle3" /><circle
       style="fill:#cccccc"
       cx="49"
       cy="32"
       r="6"
       id="circle4" /><path
       style="fill:#cccccc"
       d="m 27.75736,36.24264 a 5.9999974,5.9999975 0 0 0 8.48528,0 5.9999974,5.9999975 0 0 0 0,-8.48528 z"
       id="path4-6" /><path
       style="fill:#3f3f3f"
       d="m 27.75736,36.24264 8.48528,-8.48528 a 5.9999974,5.9999975 0 0 0 -8.48528,0 5.9999974,5.9999975 0 0 0 0,8.48528 z"
       id="path5" /><path
       style="opacity:0.2;fill:#ffffff"
       d="m 49,26 c -3.313708,0 -6,2.686292 -6,6 0.0026,0.161761 0.0117,0.323351 0.02734,0.484375 C 43.294769,29.384016 45.88813,27.00267 49,27 c 3.123716,0.0019 5.723371,2.400234 5.976562,5.513672 C 54.991711,32.342862 54.999531,32.17148 55,32 55,28.686292 52.313708,26 49,26 Z"
       id="path6-1" /><path
       style="opacity:0.1;fill:#ffffff"
       d="m 15,26 c -3.313708,0 -6,2.686292 -6,6 0.00258,0.161761 0.011703,0.323351 0.027344,0.484375 C 9.2947691,29.384016 11.88813,27.00267 15,27 c 3.123716,0.0019 5.723371,2.400234 5.976562,5.513672 C 20.991711,32.342862 20.999531,32.17148 21,32 21,28.686292 18.313708,26 15,26 Z m 17,0 c -3.313708,0 -6,2.686292 -6,6 0.0026,0.161761 0.0117,0.323351 0.02734,0.484375 C 26.294773,29.384016 28.88813,27.00267 32,27 c 3.123716,0.0019 5.723371,2.400234 5.976562,5.513672 C 37.991712,32.342862 37.999531,32.17148 38,32 38,28.686292 35.313708,26 32,26 Z"
       id="path7" /><path
       style="opacity:0.2"
       d="M 7,61 4,58 60,6 57,12 Z"
       id="path8" /><path
       style="fill:#795548"
       d="M 7,60 4,57 60,5 57,11 Z"
       id="path9" /><path
       style="opacity:0.1;fill:#ffffff"
       d="M 60,5 4,57 4.5175781,57.517578 59.066406,6.8671875 Z"
       id="path10" /></g></svg>

<svg xmlns="http://www.w3.org/2000/svg" width="64" height="64" version="1.1">
 <circle style="opacity:0.2" cx="32" cy="33" r="28"/>
 <circle style="fill:#e4e4e4" cx="32" cy="32" r="28"/>
 <path style="opacity:0.2;fill:#ffffff" d="M 32,4 A 28,28 0 0 0 4,32 28,28 0 0 0 4.0215,32.586 28,28 0 0 1 32,5 28,28 0 0 1 59.979,32.414 28,28 0 0 0 60,32 28,28 0 0 0 32,4 Z"/>
 <path style="opacity:0.2" d="M 15 27 A 6 6 0 0 0 9 33 A 6 6 0 0 0 15 39 A 6 6 0 0 0 21 33 A 6 6 0 0 0 15 27 z M 32 27 A 6 6 0 0 0 26 33 A 6 6 0 0 0 32 39 A 6 6 0 0 0 38 33 A 6 6 0 0 0 32 27 z M 49 27 A 6 6 0 0 0 43 33 A 6 6 0 0 0 49 39 A 6 6 0 0 0 55 33 A 6 6 0 0 0 49 27 z"/>
 <circle style="fill:#3f3f3f" cx="15" cy="32" r="6"/>
 <circle style="fill:#cccccc" cx="49" cy="32" r="6"/>
 <path style="fill:#cccccc" d="m 27.75736,36.24264 a 5.9999974,5.9999975 0 0 0 8.48528,0 5.9999974,5.9999975 0 0 0 0,-8.48528 z"/>
 <path style="fill:#3f3f3f" d="m 27.75736,36.24264 8.48528,-8.48528 a 5.9999974,5.9999975 0 0 0 -8.48528,0 5.9999974,5.9999975 0 0 0 0,8.48528 z"/>
 <path style="opacity:0.2;fill:#ffffff" d="m 49,26 c -3.313708,0 -6,2.686292 -6,6 0.0026,0.161761 0.0117,0.323351 0.02734,0.484375 C 43.294769,29.384016 45.88813,27.00267 49,27 c 3.123716,0.0019 5.723371,2.400234 5.976562,5.513672 C 54.991711,32.342862 54.999531,32.17148 55,32 55,28.686292 52.313708,26 49,26 Z"/>
 <path style="opacity:0.1;fill:#ffffff" d="M 15 26 C 11.686292 26 9 28.686292 9 32 C 9.00258 32.161761 9.0117028 32.323351 9.0273438 32.484375 C 9.2947691 29.384016 11.88813 27.00267 15 27 C 18.123716 27.0019 20.723371 29.400234 20.976562 32.513672 C 20.991711 32.342862 20.999531 32.17148 21 32 C 21 28.686292 18.313708 26 15 26 z M 32 26 C 28.686292 26 26 28.686292 26 32 C 26.0026 32.161761 26.011704 32.323351 26.027344 32.484375 C 26.294773 29.384016 28.88813 27.00267 32 27 C 35.123716 27.0019 37.723371 29.400234 37.976562 32.513672 C 37.991712 32.342862 37.999531 32.17148 38 32 C 38 28.686292 35.313708 26 32 26 z"/>
 <path style="opacity:0.2" d="M 7,61 4,58 60,6 57,12 Z"/>
 <path style="fill:#795548" d="M 7,60 4,57 60,5 57,11 Z"/>
 <path style="fill:#ffffff;opacity:0.1" d="M 60 5 L 4 57 L 4.5175781 57.517578 L 59.066406 6.8671875 L 60 5 z"/>
</svg>
